Newaita-dark/actions/32/align-horizontal-left-to-anchor.svg

<svg height="32" viewBox="0 0 32 32" width="32" xmlns="http://www.w3.org/2000/svg"><g fill="#e0e0e0"><path d="m15.875 2.894531c-.363281 0-.660156.296875-.660156.664063v25.136718c0 .367188.296875.660157.660156.660157.367188 0 .664062-.292969.664062-.660157v-25.136718c0-.367188-.296874-.664063-.664062-.664063zm0 0"/><path d="m29.105469 12.15625c0 1.46875-1.179688 2.648438-2.644531 2.648438h-3.96875c-1.464844 0-2.648438-1.179688-2.648438-2.648438v-3.96875c0-1.464844 1.183594-2.644531 2.648438-2.644531h3.96875c1.464843 0 2.644531 1.179687 2.644531 2.644531zm-2.644531-.660156v-2.644532c0-.367187-.296876-.664062-.660157-.664062h-2.648437c-.367188 0-.660156.296875-.660156.664062v2.644532c0 .367187.292968.660156.660156.660156h2.648437c.363281 0 .660157-.292969.660157-.660156zm0 0"/><path d="m29.105469 24.066406c0 1.464844-1.179688 2.644532-2.644531 2.644532h-5.292969c-1.464844 0-2.644531-1.179688-2.644531-2.644532v-3.972656c0-1.464844 1.179687-2.644531 2.644531-2.644531h5.292969c1.464843 0 2.644531 1.179687 2.644531 2.644531zm-2.644531-.664062v-2.644532c0-.367187-.296876-.664062-.660157-.664062h-3.96875c-.367187 0-.664062.296875-.664062.664062v2.644532c0 .367187.296875.664062.664062.664062h3.96875c.363281 0 .660157-.296875.660157-.664062zm0 0"/><path d="m10.585938 5.542969c1.464843 0 2.644531 1.179687 2.644531 2.644531v5.292969c0 1.464843-1.179688 2.644531-2.644531 2.644531h-3.972657c-1.464843 0-2.644531-1.179688-2.644531-2.644531v-5.292969c0-1.464844 1.179688-2.644531 2.644531-2.644531zm0 0"/></g></svg>

<svg xmlns="http://www.w3.org/2000/svg" xmlns:xlink="http://www.w3.org/1999/xlink" width="32px" height="32px" viewBox="0 0 32 32" version="1.1">
<g id="surface1">
     <defs>
  <style id="current-color-scheme" type="text/css">
   .ColorScheme-Text { color:#eeeeee; } .ColorScheme-Highlight { color:#424242; }
  </style>
 </defs>
<path style="fill:currentColor" class="ColorScheme-Text" d="M 15.875 2.894531 C 15.511719 2.894531 15.214844 3.191406 15.214844 3.558594 L 15.214844 28.695312 C 15.214844 29.0625 15.511719 29.355469 15.875 29.355469 C 16.242188 29.355469 16.539062 29.0625 16.539062 28.695312 L 16.539062 3.558594 C 16.539062 3.191406 16.242188 2.894531 15.875 2.894531 Z M 15.875 2.894531 "/>
     <defs>
  <style id="current-color-scheme" type="text/css">
   .ColorScheme-Text { color:#eeeeee; } .ColorScheme-Highlight { color:#424242; }
  </style>
 </defs>
<path style="fill:currentColor" class="ColorScheme-Text" d="M 29.105469 12.15625 C 29.105469 13.625 27.925781 14.804688 26.460938 14.804688 L 22.492188 14.804688 C 21.027344 14.804688 19.84375 13.625 19.84375 12.15625 L 19.84375 8.1875 C 19.84375 6.722656 21.027344 5.542969 22.492188 5.542969 L 26.460938 5.542969 C 27.925781 5.542969 29.105469 6.722656 29.105469 8.1875 Z M 26.460938 11.496094 L 26.460938 8.851562 C 26.460938 8.484375 26.164062 8.1875 25.800781 8.1875 L 23.152344 8.1875 C 22.785156 8.1875 22.492188 8.484375 22.492188 8.851562 L 22.492188 11.496094 C 22.492188 11.863281 22.785156 12.15625 23.152344 12.15625 L 25.800781 12.15625 C 26.164062 12.15625 26.460938 11.863281 26.460938 11.496094 Z M 26.460938 11.496094 "/>
     <defs>
  <style id="current-color-scheme" type="text/css">
   .ColorScheme-Text { color:#eeeeee; } .ColorScheme-Highlight { color:#424242; }
  </style>
 </defs>
<path style="fill:currentColor" class="ColorScheme-Text" d="M 29.105469 24.066406 C 29.105469 25.53125 27.925781 26.710938 26.460938 26.710938 L 21.167969 26.710938 C 19.703125 26.710938 18.523438 25.53125 18.523438 24.066406 L 18.523438 20.09375 C 18.523438 18.628906 19.703125 17.449219 21.167969 17.449219 L 26.460938 17.449219 C 27.925781 17.449219 29.105469 18.628906 29.105469 20.09375 Z M 26.460938 23.402344 L 26.460938 20.757812 C 26.460938 20.390625 26.164062 20.09375 25.800781 20.09375 L 21.832031 20.09375 C 21.464844 20.09375 21.167969 20.390625 21.167969 20.757812 L 21.167969 23.402344 C 21.167969 23.769531 21.464844 24.066406 21.832031 24.066406 L 25.800781 24.066406 C 26.164062 24.066406 26.460938 23.769531 26.460938 23.402344 Z M 26.460938 23.402344 "/>
     <defs>
  <style id="current-color-scheme" type="text/css">
   .ColorScheme-Text { color:#eeeeee; } .ColorScheme-Highlight { color:#424242; }
  </style>
 </defs>
<path style="fill:currentColor" class="ColorScheme-Text" d="M 10.585938 5.542969 C 12.050781 5.542969 13.230469 6.722656 13.230469 8.1875 L 13.230469 13.480469 C 13.230469 14.945312 12.050781 16.125 10.585938 16.125 L 6.613281 16.125 C 5.148438 16.125 3.96875 14.945312 3.96875 13.480469 L 3.96875 8.1875 C 3.96875 6.722656 5.148438 5.542969 6.613281 5.542969 Z M 10.585938 5.542969 "/>
</g>
</svg>
